X: 20066
T: Jimmy McBride's
R: reel
M: 4/4
K: Cmajor
A|:G2 EG cAGE|EDCD EGcd|(3ege dc AGAc|dged dcAE|
G2 AG cGAG|EG ~G2 EGcd|ecBc (3ABc GE|1 FEDF ECCE:|2 FEDF EC C2||
g2 ^fg ec ~c2|eg^fg ec ~c2|Addc defg|(3agf ge fedf|
ec ~c2 GcEc|AF ~F2 CFA,F|GABc defg|(3efe dB cg^fg|
eg^fg ec ~c2|eg^fg ec ~c2|Addc defg|(3agf ge fedf|
ec ~c2 GcEc|AF ~F2 CFA,F|GABc defg|(3efe dB c3 A||

